flaticon/productivity-and-development/speech-bubbles.svg

<svg xmlns="http://www.w3.org/2000/svg" width="32" height="32" viewBox="0 0 24 24">
    <path d="M 23.515625 7.824219 L 18.238281 7.824219 C 18.238281 7.765625 18.238281 7.707031 18.238281 7.648438 C 18.238281 3.703125 14.148438 0.492188 9.121094 0.492188 C 4.089844 0.492188 0 3.703125 0 7.648438 C 0 9.558594 0.984375 11.398438 2.703125 12.738281 L 2.703125 16.285156 C 2.703125 16.480469 2.828125 16.648438 3.003906 16.730469 C 3.191406 16.820312 3.4375 16.71875 3.53125 16.625 L 5.832031 14.324219 C 5.847656 14.332031 5.867188 14.335938 5.886719 14.34375 L 5.886719 19.476562 C 5.886719 19.742188 6.101562 19.960938 6.371094 19.960938 L 17.394531 19.960938 L 20.265625 23.34375 C 20.476562 23.574219 20.746094 23.503906 20.800781 23.484375 C 20.992188 23.414062 21.117188 23.230469 21.117188 23.027344 L 21.117188 19.960938 L 23.515625 19.960938 C 23.785156 19.960938 24 19.742188 24 19.476562 L 24 8.308594 C 24 8.039062 23.785156 7.824219 23.515625 7.824219 Z M 5.355469 13.433594 L 3.671875 15.113281 L 3.671875 12.496094 C 3.671875 12.339844 3.597656 12.195312 3.472656 12.105469 C 1.859375 10.921875 0.96875 9.339844 0.96875 7.648438 C 0.96875 4.234375 4.625 1.460938 9.121094 1.460938 C 13.613281 1.460938 17.269531 4.234375 17.269531 7.648438 C 17.269531 11.0625 13.613281 13.835938 9.121094 13.835938 C 7.984375 13.835938 6.882812 13.660156 5.851562 13.316406 C 5.675781 13.257812 5.484375 13.300781 5.355469 13.433594 Z M 23.03125 18.992188 L 20.632812 18.992188 C 20.367188 18.992188 20.148438 19.207031 20.148438 19.476562 L 20.148438 21.710938 L 17.988281 19.160156 C 17.894531 19.054688 17.757812 18.992188 17.617188 18.992188 L 6.855469 18.992188 L 6.855469 14.582031 C 7.589844 14.730469 8.347656 14.804688 9.121094 14.804688 C 13.652344 14.804688 17.421875 12.195312 18.125 8.792969 L 23.03125 8.792969 Z M 23.03125 18.992188"/>
    <path d="M5.933594 5.390625C4.953125 5.390625 4.15625 6.1875 4.15625 7.167969 4.15625 8.148438 4.953125 8.945312 5.933594 8.945312 6.914062 8.945312 7.710938 8.148438 7.710938 7.167969 7.710938 6.1875 6.914062 5.390625 5.933594 5.390625zM5.933594 7.976562C5.488281 7.976562 5.125 7.613281 5.125 7.167969 5.125 6.71875 5.488281 6.359375 5.933594 6.359375 6.378906 6.359375 6.742188 6.71875 6.742188 7.167969 6.742188 7.613281 6.378906 7.976562 5.933594 7.976562zM12.304688 8.945312C13.285156 8.945312 14.085938 8.148438 14.085938 7.167969 14.085938 6.1875 13.285156 5.390625 12.304688 5.390625 11.324219 5.390625 10.527344 6.1875 10.527344 7.167969 10.527344 8.148438 11.324219 8.945312 12.304688 8.945312zM12.304688 6.359375C12.753906 6.359375 13.117188 6.71875 13.117188 7.167969 13.117188 7.613281 12.753906 7.976562 12.304688 7.976562 11.859375 7.976562 11.496094 7.613281 11.496094 7.167969 11.496094 6.71875 11.859375 6.359375 12.304688 6.359375zM12.304688 6.359375"/>
</svg>

<svg xmlns="http://www.w3.org/2000/svg" width="32" height="32" viewBox="0 0 24 24">
    <path d="M23.516 7.824h-5.278v-.176c0-3.945-4.09-7.156-9.117-7.156C4.09.492 0 3.703 0 7.648c0 1.91.984 3.75 2.703 5.09v3.547a.5.5 0 0 0 .3.445c.188.09.434-.011.528-.105l2.301-2.3c.016.007.035.01.055.019v5.133c0 .265.215.484.484.484h11.024l2.87 3.383c.212.23.481.16.536.14a.486.486 0 0 0 .316-.457v-3.066h2.399c.27 0 .484-.219.484-.484V8.309a.482.482 0 0 0-.484-.485zm-18.16 5.61l-1.684 1.68v-2.618a.48.48 0 0 0-.2-.39C1.86 10.921.97 9.34.97 7.647c0-3.414 3.656-6.187 8.152-6.187 4.492 0 8.149 2.773 8.149 6.187 0 3.415-3.657 6.188-8.149 6.188-1.137 0-2.238-.176-3.27-.52a.476.476 0 0 0-.496.118zm17.675 5.558h-2.398a.484.484 0 0 0-.485.485v2.234l-2.16-2.55a.5.5 0 0 0-.37-.169H6.854v-4.41c.735.148 1.493.223 2.266.223 4.531 0 8.3-2.61 9.004-6.012h4.906zm0 0"/>
    <path d="M5.934 5.39a1.779 1.779 0 0 0 0 3.555c.98 0 1.777-.797 1.777-1.777 0-.98-.797-1.777-1.777-1.777zm0 2.587a.808.808 0 1 1-.002-1.619.808.808 0 0 1 .002 1.619zm0 0M12.305 8.945c.98 0 1.78-.797 1.78-1.777a1.779 1.779 0 0 0-3.559 0c.001.98.798 1.777 1.779 1.777zm0-2.586a.809.809 0 1 1 0 1.618.808.808 0 1 1 0-1.617zm0 0"/>
</svg>
